public/background/sponsors.svg

<svg xmlns="http://www.w3.org/2000/svg" width="3030" height="2191" fill="none" preserveAspectRatio="none"><path fill="#F5F5F5" d="M0 0h3030v2191H0z"/><path fill="#EBEBEA" d="M-7834-8098c0-1.1.9-2 2-2H3241c1.1 0 2 .9 2 2V4071c0 1.1-.9 2-2 2H-7832c-1.1 0-2-.9-2-2z"/><path fill="#000" fill-opacity=".1" d="M-7832-8099H3241v-2H-7832zm11074 1V4071h2V-8098zm-1 12170H-7832v2H3241zm-11074-1V-8098h-2V4071zm1 1c-.55 0-1-.45-1-1h-2c0 1.66 1.34 3 3 3zm11074-1c0 .55-.45 1-1 1v2c1.66 0 3-1.34 3-3zm-1-12170c.55 0 1 .45 1 1h2c0-1.66-1.34-3-3-3zm-11073-2c-1.66 0-3 1.34-3 3h2c0-.55.45-1 1-1z"/><g clip-path="url(#a)"><path fill="#fff" d="M6-11687.5h3024v18846H6z"/><g clip-path="url(#b)"><path fill="url(#c)" d="M0 0h3024v10896H0z" transform="translate(6 -3737)"/></g></g><defs><clipPath id="a"><path fill="#fff" d="M6-11687.5h3024v18846H6z"/></clipPath><clipPath id="b"><path fill="#fff" d="M6-3737h3024V7159H6z"/></clipPath><linearGradient id="c" x1="1512" x2="1512" y1="-1074.21" y2="4413.52" gradientUnits="userSpaceOnUse"><stop stop-color="#0796D3" stop-opacity=".19"/><stop offset="1" stop-color="#FFCDF7" stop-opacity=".1"/></linearGradient></defs></svg>

<svg width="3030" height="2191" viewBox="0 0 3030 2191" preserveAspectRatio="none" fill="none"
     xmlns="http://www.w3.org/2000/svg">
    <rect width="3030" height="2191" fill="#F5F5F5"/>
    <path d="M-7834 -8098C-7834 -8099.1 -7833.1 -8100 -7832 -8100H3241C3242.1 -8100 3243 -8099.1 3243 -8098V4071C3243 4072.1 3242.1 4073 3241 4073H-7832C-7833.1 4073 -7834 4072.1 -7834 4071V-8098Z"
          fill="#EBEBEA"/>
    <path d="M-7832 -8099H3241V-8101H-7832V-8099ZM3242 -8098V4071H3244V-8098H3242ZM3241 4072H-7832V4074H3241V4072ZM-7833 4071V-8098H-7835V4071H-7833ZM-7832 4072C-7832.55 4072 -7833 4071.55 -7833 4071H-7835C-7835 4072.66 -7833.66 4074 -7832 4074V4072ZM3242 4071C3242 4071.55 3241.55 4072 3241 4072V4074C3242.66 4074 3244 4072.66 3244 4071H3242ZM3241 -8099C3241.55 -8099 3242 -8098.55 3242 -8098H3244C3244 -8099.66 3242.66 -8101 3241 -8101V-8099ZM-7832 -8101C-7833.66 -8101 -7835 -8099.66 -7835 -8098H-7833C-7833 -8098.55 -7832.55 -8099 -7832 -8099V-8101Z"
          fill="black" fill-opacity="0.1"/>
    <g clip-path="url(#clip0_2_2)">
        <rect width="3024" height="18846" transform="translate(6 -11687.5)" fill="white"/>
        <g clip-path="url(#clip1_2_2)">
            <rect width="3024" height="10896" transform="translate(6 -3737)" fill="url(#paint0_linear_2_2)"/>
        </g>
    </g>
    <defs>
        <linearGradient id="paint0_linear_2_2" x1="1512" y1="-1074.21" x2="1512" y2="4413.52"
                        gradientUnits="userSpaceOnUse">
            <stop stop-color="#0796D3" stop-opacity="0.19"/>
            <stop offset="1" stop-color="#FFCDF7" stop-opacity="0.1"/>
        </linearGradient>
        <clipPath id="clip0_2_2">
            <rect width="3024" height="18846" fill="white" transform="translate(6 -11687.5)"/>
        </clipPath>
        <clipPath id="clip1_2_2">
            <rect width="3024" height="10896" fill="white" transform="translate(6 -3737)"/>
        </clipPath>
    </defs>
</svg>
